X:426
T: ZU FRANKFURT AN DER ODER
N: E1618
O: Europa, Mitteleuropa, Deutschland, Hessen, Limburg, Nauheim
R: Staende -, Handwerker -, Gesellen - Lied
M: 6/8
L: 1/16
K: Eb
B,2 | E4E2E2D2E2 | F2F2z6
D2 | F4F2F2G2A2 | B6z4
G2 | B4B2B4B2 | c2c2z6
c2 | c3cc2c2B2A2 | G6z4
B2 | B4AAF2G2A2 | c2B2B2B2A2
G2 | B4B2B4e2 | c2c2z6
c2 | c3cc2c2B2A2 | G6z4

